svgs/bri_mobile.svg

<svg width="192" height="192" viewBox="0 0 192 192" fill="none" xmlns="http://www.w3.org/2000/svg"><path d="m56 96-4.243-4.243a6 6 0 0 0 0 8.486L56 96Zm14-14-4.243-4.243L70 82Zm4.243-56.243a6 6 0 1 0-8.486 8.486l8.486-8.486ZM85 96l-4.243-4.243a6 6 0 0 0 0 8.486L85 96Zm14-14-4.243-4.243L99 82Zm45.757 82.243a6.001 6.001 0 0 0 8.486-8.486l-8.486 8.486ZM103.243 25.757a6 6 0 0 0-8.486 8.486l8.486-8.486ZM70 110l-4.243 4.243L70 110Zm-4.243 47.757a6 6 0 0 0 8.486 8.486l-8.486-8.486ZM48 36h96V24H48v12Zm108 12v96h12V48h-12Zm-12 108H48v12h96v-12ZM36 144V48H24v96h12Zm12 12c-6.627 0-12-5.373-12-12H24c0 13.255 10.745 24 24 24v-12Zm108-12c0 6.627-5.373 12-12 12v12c13.255 0 24-10.745 24-24h-12ZM144 36c6.627 0 12 5.373 12 12h12c0-13.255-10.745-24-24-24v12ZM48 24c-13.255 0-24 10.745-24 24h12c0-6.627 5.373-12 12-12V24Zm12.243 76.243 14-14-8.486-8.486-14 14 8.486 8.486Zm14-14c16.702-16.703 16.702-43.783 0-60.486l-8.486 8.486c12.017 12.016 12.017 31.498 0 43.514l8.486 8.486Zm15 14 14-14-8.486-8.486-14 14 8.486 8.486Zm-8.486 0 64 64 8.486-8.486-64-64-8.486 8.486Zm22.486-14c16.702-16.703 16.702-43.783 0-60.486l-8.486 8.486c12.017 12.016 12.017 31.498 0 43.514l8.486 8.486Zm-51.486 14 14 14 8.486-8.486-14-14-8.486 8.486Zm14 14c12.017 12.016 12.017 31.498 0 43.514l8.486 8.486c16.702-16.703 16.702-43.783 0-60.486l-8.486 8.486Z" fill="#000"/></svg>

<?xml version="1.0" encoding="UTF-8" standalone="no"?><svg xmlns:android="http://schemas.android.com/apk/res/android" height="192" width="192" xmlns="http://www.w3.org/2000/svg">
  <path d="M56,96L51.757,91.757C49.414,94.101 49.414,97.899 51.757,100.243L56,96ZM70,82L65.757,77.757L65.757,77.757L70,82ZM74.243,25.757C71.899,23.414 68.101,23.414 65.757,25.757C63.414,28.101 63.414,31.899 65.757,34.243L74.243,25.757ZM85,96L80.757,91.757C78.414,94.101 78.414,97.899 80.757,100.243L85,96ZM99,82L94.757,77.757L94.757,77.757L99,82ZM144.757,164.243C147.101,166.586 150.899,166.586 153.243,164.243C155.586,161.899 155.586,158.101 153.243,155.757L144.757,164.243ZM103.243,25.757C100.899,23.414 97.101,23.414 94.757,25.757C92.414,28.101 92.414,31.899 94.757,34.243L103.243,25.757ZM70,110L65.757,114.243L65.757,114.243L70,110ZM65.757,157.757C63.414,160.101 63.414,163.899 65.757,166.243C68.101,168.586 71.899,168.586 74.243,166.243L65.757,157.757ZM48,36H144V24H48V36ZM156,48V144H168V48H156ZM144,156H48V168H144V156ZM36,144V48H24V144H36ZM48,156C41.373,156 36,150.627 36,144H24C24,157.255 34.745,168 48,168V156ZM156,144C156,150.627 150.627,156 144,156V168C157.255,168 168,157.255 168,144H156ZM144,36C150.627,36 156,41.373 156,48H168C168,34.745 157.255,24 144,24V36ZM48,24C34.745,24 24,34.745 24,48H36C36,41.373 41.373,36 48,36V24ZM60.243,100.243L74.243,86.243L65.757,77.757L51.757,91.757L60.243,100.243ZM74.243,86.243C90.945,69.54 90.945,42.46 74.243,25.757L65.757,34.243C77.774,46.259 77.774,65.741 65.757,77.757L74.243,86.243ZM89.243,100.243L103.243,86.243L94.757,77.757L80.757,91.757L89.243,100.243ZM80.757,100.243L144.757,164.243L153.243,155.757L89.243,91.757L80.757,100.243ZM103.243,86.243C119.945,69.54 119.945,42.46 103.243,25.757L94.757,34.243C106.774,46.259 106.774,65.741 94.757,77.757L103.243,86.243ZM51.757,100.243L65.757,114.243L74.243,105.757L60.243,91.757L51.757,100.243ZM65.757,114.243C77.774,126.259 77.774,145.741 65.757,157.757L74.243,166.243C90.945,149.54 90.945,122.46 74.243,105.757L65.757,114.243Z" fill="#000000"/>
</svg>
